data/yeseva-one.svg

<svg width="80.29" height="16.17" viewBox="0 0 80.29 16.17" xmlns="http://www.w3.org/2000/svg"><path transform="translate(0 12.81) scale(.014 -.014)" d="m195 15 60 15v230l-205 410-50 15v15h125q52 0 83.5-22t51.5-63l148-295 152 335-75 30v15h190v-15l-80-30-175-385v-240l60-15v-15h-285z"/><path transform="translate(9.31 12.81) scale(.014 -.014)" d="m40 250q0 81 31 141t86.5 92 127.5 32 126.5-27 84-72.5 29.5-100.5q0-25-5-43l-5-17q-43-9-93-15-105-15-212-15 0-116 32-165.5t88-49.5q39 0 72.5 18.5t53 49 19.5 62.5h25q0-40-24-76t-67-57.5-99-21.5q-128 0-199 70.5t-71 194.5zm274 5q17 1 36 5 1 5 5 22 5 25 5 53 0 83-22 121.5t-53 38.5q-75 0-75-245 64 0 104 5z"/><path transform="translate(17.15 12.81) scale(.014 -.014)" d="m164 12q-24 13-39 28-16-22-35-34-9-6-20-11h-25v170h40q13-42 38-78 53-77 132-77 42 0 63.5 20.5t21.5 59.5q0 33-29.5 55.5t-92.5 55.5q-54 27-87.5 48.5t-57 54-23.5 76.5q0 60 51.5 97.5t158.5 37.5q53 0 98-28 22-13 38-27 13 18 35 34 17 10 20 11h25v-170h-40q-15 43-37 77-50 78-119 78-27 0-46-20t-19-50q0-38 32-63.5t97-58.5q53-27 84.5-47.5t54-50.5 22.5-70q0-145-230-145-62 0-111 27z"/><path transform="translate(24.71 12.81) scale(.014 -.014)" d="m40 250q0 81 31 141t86.5 92 127.5 32 126.5-27 84-72.5 29.5-100.5q0-25-5-43l-5-17q-43-9-93-15-105-15-212-15 0-116 32-165.5t88-49.5q39 0 72.5 18.5t53 49 19.5 62.5h25q0-40-24-76t-67-57.5-99-21.5q-128 0-199 70.5t-71 194.5zm274 5q17 1 36 5 1 5 5 22 5 25 5 53 0 83-22 121.5t-53 38.5q-75 0-75-245 64 0 104 5z"/><path transform="translate(32.55 12.81) scale(.014 -.014)" d="m30 470-50 15v15h125q52 0 82.5-21.5t52.5-63.5l119-231 111 271-75 30v15h185v-15l-80-30-190-465h-30z"/><path transform="translate(40.39 12.81) scale(.014 -.014)" d="m50 120q0 39 17 77 7 18 18 33 41 10 89 18 108 18 191 22v30q0 111-27 153t-83 42q-21 0-36-5l-14-5v-150l-13-3q-16-2-27-2-34 0-54.5 20.5t-20.5 54.5q0 46 46.5 78t138.5 32q78 0 134.5-27.5t86-76 29.5-111.5v-270l60-15v-15h-90q-60 0-93 37-14 15-22 38-14-25-33-45-45-45-112-45-89 0-137 38t-48 97zm292-60q11 15 23 40v145q-46 0-88-5-31-4-42-5-5-11-10-30-10-38-10-75 0-56 17-83t43-27q37 0 67 40z"/><path transform="translate(52.78 12.81) scale(.014 -.014)" d="m45 350q0 116 40 198t113.5 124.5 171.5 42.5 171.5-42.5 113.5-124.5 40-198-40-198-113.5-124.5-171.5-42.5-171.5 42.5-113.5 124.5-40 198zm475 0q0 125-22 202t-55.5 110-72.5 33-72.5-33-55.5-110-22-202 22-202 55.5-110 72.5-33 72.5 33 55.5 110 22 202z"/><path transform="translate(63.14 12.81) scale(.014 -.014)" d="m40 15 60 15v440l-60 15v15h90q59 0 93-38 13-15 22-37 14 26 33 45 45 45 112 45 56 0 100.5-23.5t69.5-61.5 25-80v-320l60-15v-15h-130q-90 0-90 90v260q0 63-22.5 96.5t-52.5 33.5q-38 0-68-40-13-17-22-40v-370l60-15v-15h-280z"/><path transform="translate(72.45 12.81) scale(.014 -.014)" d="m40 250q0 81 31 141t86.5 92 127.5 32 126.5-27 84-72.5 29.5-100.5q0-25-5-43l-5-17q-43-9-93-15-105-15-212-15 0-116 32-165.5t88-49.5q39 0 72.5 18.5t53 49 19.5 62.5h25q0-40-24-76t-67-57.5-99-21.5q-128 0-199 70.5t-71 194.5zm274 5q17 1 36 5 1 5 5 22 5 25 5 53 0 83-22 121.5t-53 38.5q-75 0-75-245 64 0 104 5z"/></svg>

<?xml version="1.0" encoding="utf-8" ?>
<svg baseProfile="tiny" height="100%" version="1.2" width="100%" xmlns="http://www.w3.org/2000/svg" xmlns:ev="http://www.w3.org/2001/xml-events" xmlns:xlink="http://www.w3.org/1999/xlink"><defs /><g><path d="M195 15 255 30V260L50 670L0 685V700H125Q177 700 208.5 678.0Q240 656 260 615L408 320L560 655L485 685V700H675V685L595 655L420 270V30L480 15V0H195Z" transform="translate(0.0, 72) scale(0.072, -0.072)" /><path d="M40 250Q40 331 71.0 391.0Q102 451 157.5 483.0Q213 515 285 515Q357 515 411.5 488.0Q466 461 495.5 415.5Q525 370 525 315Q525 290 520 272L515 255Q472 246 422 240Q317 225 210 225Q210 109 242.0 59.5Q274 10 330 10Q369 10 402.5 28.5Q436 47 455.5 77.5Q475 108 475 140H500Q500 100 476.0 64.0Q452 28 409.0 6.5Q366 -15 310 -15Q182 -15 111.0 55.5Q40 126 40 250ZM314 255Q331 256 350 260Q351 265 355 282Q360 307 360 335Q360 418 338.0 456.5Q316 495 285 495Q210 495 210 250Q274 250 314 255Z" transform="translate(47.879999999999995, 72) scale(0.072, -0.072)" /><path d="M164 12Q140 25 125 40Q109 18 90 6Q81 0 70 -5H45V165H85Q98 123 123 87Q176 10 255 10Q297 10 318.5 30.5Q340 51 340 90Q340 123 310.5 145.5Q281 168 218 201Q164 228 130.5 249.5Q97 271 73.5 303.5Q50 336 50 380Q50 440 101.5 477.5Q153 515 260 515Q313 515 358 487Q380 474 396 460Q409 478 431 494Q448 504 451 505H476V335H436Q421 378 399 412Q349 490 280 490Q253 490 234.0 470.0Q215 450 215 420Q215 382 247.0 356.5Q279 331 344 298Q397 271 428.5 250.5Q460 230 482.5 200.0Q505 170 505 130Q505 -15 275 -15Q213 -15 164 12Z" transform="translate(88.19999999999999, 72) scale(0.072, -0.072)" /><path d="M40 250Q40 331 71.0 391.0Q102 451 157.5 483.0Q213 515 285 515Q357 515 411.5 488.0Q466 461 495.5 415.5Q525 370 525 315Q525 290 520 272L515 255Q472 246 422 240Q317 225 210 225Q210 109 242.0 59.5Q274 10 330 10Q369 10 402.5 28.5Q436 47 455.5 77.5Q475 108 475 140H500Q500 100 476.0 64.0Q452 28 409.0 6.5Q366 -15 310 -15Q182 -15 111.0 55.5Q40 126 40 250ZM314 255Q331 256 350 260Q351 265 355 282Q360 307 360 335Q360 418 338.0 456.5Q316 495 285 495Q210 495 210 250Q274 250 314 255Z" transform="translate(127.07999999999998, 72) scale(0.072, -0.072)" /><path d="M30 470 -20 485V500H105Q157 500 187.5 478.5Q218 457 240 415L359 184L470 455L395 485V500H580V485L500 455L310 -10H280Z" transform="translate(167.39999999999998, 72) scale(0.072, -0.072)" /><path d="M50 120Q50 159 67 197Q74 215 85 230Q126 240 174 248Q282 266 365 270V300Q365 411 338.0 453.0Q311 495 255 495Q234 495 219 490L205 485V335L192 332Q176 330 165 330Q131 330 110.5 350.5Q90 371 90 405Q90 451 136.5 483.0Q183 515 275 515Q353 515 409.5 487.5Q466 460 495.5 411.5Q525 363 525 300V30L585 15V0H495Q435 0 402 37Q388 52 380 75Q366 50 347 30Q302 -15 235 -15Q146 -15 98.0 23.0Q50 61 50 120ZM342 60Q353 75 365 100V245Q319 245 277 240Q246 236 235 235Q230 224 225 205Q215 167 215 130Q215 74 232.0 47.0Q249 20 275 20Q312 20 342 60Z" transform="translate(207.71999999999997, 72) scale(0.072, -0.072)" /><path d="M45 350Q45 466 85.0 548.0Q125 630 198.5 672.5Q272 715 370 715Q468 715 541.5 672.5Q615 630 655.0 548.0Q695 466 695 350Q695 234 655.0 152.0Q615 70 541.5 27.5Q468 -15 370 -15Q272 -15 198.5 27.5Q125 70 85.0 152.0Q45 234 45 350ZM520 350Q520 475 498.0 552.0Q476 629 442.5 662.0Q409 695 370 695Q331 695 297.5 662.0Q264 629 242.0 552.0Q220 475 220 350Q220 225 242.0 148.0Q264 71 297.5 38.0Q331 5 370 5Q409 5 442.5 38.0Q476 71 498.0 148.0Q520 225 520 350Z" transform="translate(271.44, 72) scale(0.072, -0.072)" /><path d="M40 15 100 30V470L40 485V500H130Q189 500 223 462Q236 447 245 425Q259 451 278 470Q323 515 390 515Q446 515 490.5 491.5Q535 468 560.0 430.0Q585 392 585 350V30L645 15V0H515Q425 0 425 90V350Q425 413 402.5 446.5Q380 480 350 480Q312 480 282 440Q269 423 260 400V30L320 15V0H40Z" transform="translate(324.71999999999997, 72) scale(0.072, -0.072)" /><path d="M40 250Q40 331 71.0 391.0Q102 451 157.5 483.0Q213 515 285 515Q357 515 411.5 488.0Q466 461 495.5 415.5Q525 370 525 315Q525 290 520 272L515 255Q472 246 422 240Q317 225 210 225Q210 109 242.0 59.5Q274 10 330 10Q369 10 402.5 28.5Q436 47 455.5 77.5Q475 108 475 140H500Q500 100 476.0 64.0Q452 28 409.0 6.5Q366 -15 310 -15Q182 -15 111.0 55.5Q40 126 40 250ZM314 255Q331 256 350 260Q351 265 355 282Q360 307 360 335Q360 418 338.0 456.5Q316 495 285 495Q210 495 210 250Q274 250 314 255Z" transform="translate(372.59999999999997, 72) scale(0.072, -0.072)" /></g></svg>
